X:1
T:Title
%%score { ( 1 3 ) | ( 2 4 ) }
L:1/8
Q:1/4=107
M:12/8
K:Eb
V:1 treble nm="Grand Piano"
V:3 treble 
V:2 bass 
V:4 bass 
V:1
 [B,GB]3 [B,GB]3 [B,GB]3 [B,GB]3 | [B,EG][B,FA][C_G=A] [B,=GB][EGc][B,EG] [GB]2 A [B,F_A]3 | %2
w: I.~H.~Meredith * * *||
 [DAc]3 [DAc]3 [DAc]3 [DAc]3 | [Bd][Ac][GB] [FA][=EG][FA] [_Gc]3 [=GB]3 | [GB]3 [GB]3 [GB]3 [GB]3 | %5
w: |||
 [EG][FA][_G=A] [=GB][Ge]B d2 _d [Ec]3 | [Ee]3 [E=A]3 [Ee]3 [EG]3 | BAG [DF]2 [DG] E6 | %8
w: |||
 [Ad]3 [Gd]3 [Fd]3 [Ad]3 | [Gc][B,GB][C_G=A] [B,=GB]2 [E_Ac] [EGB]3 [B,EG]3 | %10
w: ||
 [B,FA]3 [B,EA]3 [B,DA]3 [B,FA]3 | [B,EG][B,FA][C_G=A] [B,=GB]2 [_Gc] [B,=GB]6 | %12
w: ||
 [Ad]3 [Gd]3 [Fd]3 [Ad]3 | [Gc][GB][_G=A] [=GB]2 [_Ac] [GB]3 [EG]3 | [Ee]3 [E=A]3 [Ee]3 [EG]3 | %15
w: |||
 BAG [DF]2 [DG] E6 |] %16
w: |
V:2
 E,3 B,,3 E,3 B,,3 | E,E,E, E,E,E, z2 _G B,,3 | F,3 B,,3 F,3 B,,3 | %3
 [B,,B,][B,,B,][B,,B,] [B,,B,][B,,B,][B,,B,] [E,=A,]3 [E,B,]3 | [E,B,]3 [B,,B,]3 [E,B,]3 [B,,B,]3 | %5
 [E,B,][E,B,][E,C] [E,B,][E,B,][G,B,E] [A,E]3 [A,,A,]3 | [C,A,]3 [=B,,_G,]3 [_B,,=G,]3 [B,,B,]3 | %7
 [F,A,C][F,A,C][F,A,C] [B,,A,]2 [B,,B,] [E,G,]6 | [F,B,]3 [B,,B,]3 [F,B,]3 [B,,B,]3 | %9
 [E,B,]E,E, E,2 E, E,3 E,3 | D,3 C,3 B,,3 D,3 | E,E,E, E,2 [E,=A,] z2[K:treble] e gfe | %12
 [F,B,]3 [B,,B,]3 [F,B,]3 [B,,B,]3 | [E,B,][E,B,][E,C] [E,B,]2 [E,E] [E,E]3 [E,B,]3 | %14
 [C,A,]3 [=B,,_G,]3 [_B,,=G,]3 [B,,B,]3 | [F,A,C][F,A,C][F,A,C] [B,,A,]2 [B,,B,] [E,G,]6 |] %16
V:3
 x12 | z6 B,3 z3 | x12 | x12 | x12 | x12 | x12 | x12 | x12 | x12 | x12 | x12 | x12 | x12 | x12 | %15
 x12 |] %16
V:4
 x12 | z6 B,,3 z3 | x12 | x12 | x12 | x12 | x12 | x12 | x12 | x12 | x12 | z6 E,6[K:treble] | x12 | %13
 x12 | x12 | x12 |] %16

